dist/uploads/catalog-sidebar-icons/1/i-catalog-18.svg

<svg width="38" height="19" viewBox="0 0 38 19" fill="none" xmlns="http://www.w3.org/2000/svg">
<path d="M0 0V16.7332H5.46565V19H8.69991V16.7333H29.3002V19H32.5344V16.7333H38V0H0ZM19 9.44844C18.0747 9.44844 16.0833 8.70007 16.0833 7.77694C16.0833 6.85381 18.0748 6.10525 19 6.10525C19.9252 6.10525 21.8123 6.85363 21.8123 7.77694C21.8123 8.70026 19.9252 9.44844 19 9.44844Z" fill="#FFC800"/>
</svg>

<svg width="38" height="19" fill="none" xmlns="http://www.w3.org/2000/svg"><path d="M0 0v16.733h5.466V19H8.7v-2.267h20.6V19h3.234v-2.267H38V0H0zm19 9.448c-.925 0-2.917-.748-2.917-1.671S18.075 6.105 19 6.105c.925 0 2.812.749 2.812 1.672 0 .923-1.887 1.671-2.812 1.671z" fill="#FFC800"/></svg>
